X:1
T:rue Ste. Catherine
M:C
L:1/8
Q:205
C:(c) Greg Anderson, 18 May 2000
R:Reel
H:The rue Ste. Catherine, located in the middle of Bordeaux, is the
H:largest pedestrian shopping street in France. On a nice day its a
H:bustling place where you can buy just about anything you might want
K:G
GA GE DB, DE|GE GB e2 d2|ga ge dB ge|dB AG E2 D2|
GA GE DB, DE|GE GB e2 d2|ga ge dB ge|1dB A2 G4:|
2B2 e2 e2 f2|:g4 e3 a|ge dG B2 d2|AB AF DF AF|
GF GA Bd ef|g4 e3 a|ge dG A2 G2|
1AB AG EG AF|E2 e2 e2 f2:|2AB AG FA GF|E4 D4||
